svg/fluentui-system-icons/ic_fluent_cart_24_regular.svg

<svg width="24" height="24" viewBox="0 0 24 24" fill="none" xmlns="http://www.w3.org/2000/svg">
<path d="M2.5 4.25C2.5 3.83579 2.83579 3.5 3.25 3.5H3.80826C4.75873 3.5 5.32782 4.13899 5.65325 4.73299C5.87016 5.12894 6.02708 5.58818 6.14982 6.00395C6.18306 6.00134 6.21674 6 6.2508 6H18.7481C19.5783 6 20.1778 6.79442 19.9502 7.5928L18.1224 14.0019C17.7856 15.1832 16.7062 15.9978 15.4779 15.9978H9.52977C8.29128 15.9978 7.2056 15.1699 6.87783 13.9756L6.11734 11.2045L4.85874 6.95578L4.8567 6.94834C4.701 6.38051 4.55487 5.85005 4.33773 5.4537C4.12686 5.0688 3.95877 5 3.80826 5H3.25C2.83579 5 2.5 4.66421 2.5 4.25ZM7.57283 10.8403L8.32434 13.5786C8.47333 14.1215 8.96682 14.4978 9.52977 14.4978H15.4779C16.0362 14.4978 16.5268 14.1275 16.68 13.5906L18.4168 7.5H6.58549L7.55906 10.7868C7.56434 10.8046 7.56892 10.8224 7.57283 10.8403ZM11 19C11 20.1046 10.1046 21 9 21C7.89543 21 7 20.1046 7 19C7 17.8954 7.89543 17 9 17C10.1046 17 11 17.8954 11 19ZM9.5 19C9.5 18.7239 9.27614 18.5 9 18.5C8.72386 18.5 8.5 18.7239 8.5 19C8.5 19.2761 8.72386 19.5 9 19.5C9.27614 19.5 9.5 19.2761 9.5 19ZM18 19C18 20.1046 17.1046 21 16 21C14.8954 21 14 20.1046 14 19C14 17.8954 14.8954 17 16 17C17.1046 17 18 17.8954 18 19ZM16.5 19C16.5 18.7239 16.2761 18.5 16 18.5C15.7239 18.5 15.5 18.7239 15.5 19C15.5 19.2761 15.7239 19.5 16 19.5C16.2761 19.5 16.5 19.2761 16.5 19Z" fill="#212121"/>
</svg>

<svg xmlns="http://www.w3.org/2000/svg" width="24" height="24"><path d="M2.5 4.25a.75.75 0 0 1 .75-.75h.558c.95 0 1.52.639 1.845 1.233.217.396.374.855.497 1.271A1.29 1.29 0 0 1 6.25 6h12.498c.83 0 1.43.794 1.202 1.593l-1.828 6.409a2.75 2.75 0 0 1-2.644 1.996H9.53a2.75 2.75 0 0 1-2.652-2.022l-.76-2.772-1.26-4.248-.001-.008c-.156-.567-.302-1.098-.52-1.494C4.128 5.069 3.96 5 3.809 5H3.25a.75.75 0 0 1-.75-.75Zm5.073 6.59.751 2.739c.15.542.643.919 1.206.919h5.948a1.25 1.25 0 0 0 1.202-.907L18.417 7.5H6.585l.974 3.287.014.053ZM11 19a2 2 0 1 1-4 0 2 2 0 0 1 4 0Zm-1.5 0a.5.5 0 1 0-1 0 .5.5 0 0 0 1 0Zm8.5 0a2 2 0 1 1-4 0 2 2 0 0 1 4 0Zm-1.5 0a.5.5 0 1 0-1 0 .5.5 0 0 0 1 0Z"/></svg>
